tools/download-figma-icons/icons/solid/lkw-with-box.svg

<svg width="24" height="24" viewBox="0 0 24 24" fill="none" xmlns="http://www.w3.org/2000/svg">
<path fill-rule="evenodd" clip-rule="evenodd" d="M23.925 11.6775V11.6625L21.9075 7.515C21.6525 7.035 21.15 6.7425 20.5875 6.7425H15.75V5.9775C15.75 5.16 15.075 4.5 14.25 4.5H1.485C0.6675 4.5 0 5.16 0 5.9775V15.765C0 16.575 0.6675 17.2425 1.485 17.2425H2.805C2.985 18.51 4.0725 19.5 5.3925 19.5C6.7125 19.5 7.8 18.51 7.98 17.2425H16.5375C16.725 18.51 17.805 19.4925 19.125 19.4925C20.445 19.4925 21.525 18.51 21.7125 17.2425H22.5C23.31 17.2425 24 16.5525 24 15.7425V11.9925C24 11.88 23.97 11.775 23.925 11.6775ZM5.3925 18C4.8975 18 4.485 17.6775 4.335 17.2425H6.45C6.2925 17.6775 5.88 18 5.3925 18ZM12 10.4925C12 10.905 11.6625 11.2425 11.25 11.2425V13.4925C11.25 13.905 10.9125 14.2425 10.5 14.2425H5.25C4.8375 14.2425 4.5 13.905 4.5 13.4925V11.2425C4.0875 11.2425 3.75 10.905 3.75 10.4925V8.2425C3.75 7.83 4.0875 7.4925 4.5 7.4925H11.25C11.6625 7.4925 12 7.83 12 8.2425V10.4925ZM18.75 8.2125L20.5725 8.1975L22.05 11.2425H18.75V8.2125ZM19.125 17.9925C18.5025 17.9925 18 17.49 18 16.8675C18 16.245 18.5025 15.7425 19.125 15.7425C19.7475 15.7425 20.25 16.245 20.25 16.8675C20.25 17.49 19.7475 17.9925 19.125 17.9925ZM22.5 15.7425H21.4875C21.06 14.8575 20.1675 14.2425 19.125 14.2425C18.0825 14.2425 17.19 14.8575 16.7625 15.7425H15.75V8.2425L17.25 8.2275V11.9925C17.25 12.405 17.5875 12.7425 18 12.7425H22.5V15.7425ZM10.5 8.99666H5.25004V9.74666H10.5V8.99666ZM5.99999 11.2466H9.74999V12.7466H5.99999V11.2466Z" fill="black"/>
</svg>

<svg xmlns="http://www.w3.org/2000/svg" width="24" height="24" fill="none" viewBox="0 0 24 24"><path fill="currentColor" fill-rule="evenodd" d="M23.925 11.678v-.016l-2.018-4.147a1.48 1.48 0 0 0-1.32-.772H15.75v-.766a1.49 1.49 0 0 0-1.5-1.477H1.485C.667 4.5 0 5.16 0 5.978v9.787c0 .81.668 1.477 1.485 1.477h1.32A2.625 2.625 0 0 0 5.393 19.5c1.32 0 2.407-.99 2.587-2.258h8.558c.187 1.268 1.267 2.25 2.587 2.25s2.4-.982 2.587-2.25h.788c.81 0 1.5-.69 1.5-1.5v-3.75a.75.75 0 0 0-.075-.315M5.393 18a1.12 1.12 0 0 1-1.058-.758H6.45c-.157.435-.57.758-1.057.758M12 10.493c0 .412-.338.75-.75.75v2.25c0 .412-.338.75-.75.75H5.25a.75.75 0 0 1-.75-.75v-2.25a.75.75 0 0 1-.75-.75v-2.25c0-.413.338-.75.75-.75h6.75c.412 0 .75.337.75.75zm6.75-2.28 1.823-.015 1.477 3.044h-3.3zm.375 9.78A1.123 1.123 0 0 1 18 16.868c0-.623.503-1.125 1.125-1.125a1.123 1.123 0 1 1 0 2.249m3.375-2.25h-1.012a2.63 2.63 0 0 0-2.363-1.5 2.63 2.63 0 0 0-2.363 1.5H15.75v-7.5l1.5-.016v3.765c0 .413.337.75.75.75h4.5zm-12-6.746H5.25v.75h5.25zM6 11.247h3.75v1.5H6z" clip-rule="evenodd"/></svg>
